X: 896
T: Handy With the Stick
N:"Collected by F.O'Neill"
B:O'Neill's 896
Z:Transcribed by Dan G. Petersen, dangp@post6.tele.dk
M:6/8
L:1/8
K:Em
(G/A/)|Bed cBA|GEG BGE|DEG GAB|edB cBA|
Bed cBA|GEG BGE|DEG GAB|Be^d e2:|
(e/f/)|gdB GBd|gaf gdB|cAA EAA|ced cBA|
GBB Acc|GBA GFE|DEG GAB|Be^d e2:|


